icon/pk/battery-empty.svg

<svg viewBox="0 0 48 48" fill="none" xmlns="http://www.w3.org/2000/svg" height="1em" width="1em">
  <path d="M38 14H6C4.89543 14 4 14.8954 4 16V32C4 33.1046 4.89543 34 6 34H38C39.1046 34 40 33.1046 40 32V16C40 14.8954 39.1046 14 38 14Z" fill="#2F88FF" stroke="black" stroke-width="4" stroke-linecap="round" stroke-linejoin="round"/>
  <path d="M42 20H44C45.1046 20 46 20.8954 46 22V26C46 27.1046 45.1046 28 44 28H42V20Z" fill="black"/>
</svg>

<svg width="48" height="48" fill="none" xmlns="http://www.w3.org/2000/svg"><path d="M38 14H6a2 2 0 0 0-2 2v16a2 2 0 0 0 2 2h32a2 2 0 0 0 2-2V16a2 2 0 0 0-2-2Z" fill="#2F88FF" stroke="#000" stroke-width="4" stroke-linecap="round" stroke-linejoin="round"/><path d="M42 20h2a2 2 0 0 1 2 2v4a2 2 0 0 1-2 2h-2v-8Z" fill="#000"/></svg>
